X: 026
T: New Deacon (jig)
N: 140360
C: BB
R: jig
Q: 1/8=340
M: 6/8
L: 1/8
K: G
D|"G"G,B,D GDB,|"C"CEG cBc| "G"Bcd "Am"cBA | "G"GAG "D"FED |
"G"G,B,D GDB, | "C"CEG cBc | "G"BGB "D"AFA | "G"G3 "G"G2 :|
d |"G"gfg dBG | "C"cBc "Am"ABc | "Em"BGG "Am"cAA | "A"^cec "D"d2 f |
"G"gbg dBG | "C"cec "Am"ABc | "G"BGB "D"AFA |"G"G3 "G"G2 :|
%%%%%%%%%%%%%%%%%%%%%%%%%%%%%%%%%%%%%%%%%%%
